X:1
T:Title
%%score { ( 1 3 ) | 2 }
L:1/8
M:4/4
K:A
V:1 treble nm="Grand Piano"
V:3 treble 
V:2 bass 
V:1
 z4 z2[Q:1/4=88] [A,C][B,D] | [DF][CE][CE][=C^D] [^CE]2 [CA][Ec] | c2 B2 [CA]2 [A,C][B,D] | %3
 [DF][CE][CE][=C^D] [^CE]2 [CA][Ec] | [Ec]2 [DB]2 [CA]2 cd | e>B BB B2 [Ec][Ed] | %6
[M:3/4] [Ee]>[EA] [EA][DA] [CA]2 |[M:1/4] [CA][EG] |[M:4/4] FFFF F[FA][EG][DF] | %9
[M:3/4] E2- [CE-][CE-] [CE]2 |[M:1/4] [CA][Ec] |[M:4/4] [EB]2 [Ge]2 [Ge]2 Bd |[M:3/4] c6 | %13
[M:1/4] [CA][EG] |[M:4/4] FFFF F[FA][EG][DF] |[M:3/4] E6 |[M:1/4] [EA][Ec] | %17
[M:4/4] [EB]2 [Ge]2 [Ge]2 [DGB][EGc] |[M:3/4] [CA]6 |] %19
V:2
 z4 z2 [A,,E,][A,,E,] | [A,,A,][A,,A,][A,,A,][A,,A,] [A,,A,]2 [A,,A,][A,,A,] | %2
 [A,E]2 [E,G,D]2 [A,,A,]2 [A,,E,][A,,E,] | [A,,A,][A,,A,][A,,A,][A,,A,] [A,,A,]2 [A,,A,][A,,A,] | %4
 [E,A,]2 [E,G,]2 [A,,A,]2 [A,E][A,B,E] | [G,B,E]>[G,B,E] [G,B,E][F,A,^D] [E,G,E]2 [A,,A,][B,,G,] | %6
[M:3/4] [C,A,]>[C,A,] [C,A,][B,,A,] [A,,A,]2 |[M:1/4] [A,,A,][C,A,] | %8
[M:4/4] [D,A,D][D,A,D][D,A,D][D,A,D] [D,A,D][D,A,][D,A,][D,A,] | %9
[M:3/4] [A,,A,]2 [A,,A,][A,,A,] [A,,A,]2 |[M:1/4] [A,,A,][A,,A,] | %11
[M:4/4] [E,G,]2 [E,B,]2 [E,B,]2 [E,G,E][G,B,E] |[M:3/4] [A,E]2 [A,C][A,C] [A,C]2 | %13
[M:1/4] [A,,A,][C,A,] |[M:4/4] [D,A,D][D,A,D][D,A,D][D,A,D] [D,A,D][D,A,][D,A,][D,A,] | %15
[M:3/4] [A,,A,]2 [A,,A,][A,,A,] [A,,A,]2 |[M:1/4] [A,,A,][A,,A,] | %17
[M:4/4] [E,G,]2 [E,B,]2 [E,B,]2 E,E, |[M:3/4] A,,6 |] %19
V:3
 x8 | x8 | x8 | x8 | x8 | x8 |[M:3/4] x6 |[M:1/4] x2 |[M:4/4] x8 |[M:3/4] C2 z2 z2 |[M:1/4] x2 | %11
[M:4/4] x8 |[M:3/4] z2 EE E2 |[M:1/4] x2 |[M:4/4] x8 |[M:3/4] C2 CC C2 |[M:1/4] x2 |[M:4/4] x8 | %18
[M:3/4] x6 |] %19

